X: 1
T: OUR BOYS' -- JIG
B: Ryan's Mammoth Collection of Fiddle Tunes
R: jig
M: 6/8
L: 1/8
Z: Contributed 20000422013652 by John Chambers jc:ecf-guest.mit.edu
K: G
uD \
| GAA {c}BAB | GBd def | g(fg) (ed)B | {c}BAA A2uD |
| GAB {c}BAB | (GB)d def | gfe dAc | {c}BGG G2 :|
|: uB \
| def gfg | age edB | g(fg) (ed)G | (BA)A A2B |
| (GB)B {c}BAB | (GB)d def | .g(fg) (ed)B | {B}AGG G2 :|
